dist/img/common/icons/vk.svg

<svg xmlns="http://www.w3.org/2000/svg" width="34" height="34" viewBox="0 0 34 34" fill="none">
    <g clip-path="url(#clip0_731_1056)">
        <path d="M17 34C26.3888 34 34 26.3888 34 17C34 7.61116 26.3888 0 17 0C7.61116 0 0 7.61116 0 17C0 26.3888 7.61116 34 17 34Z" fill="url(#paint0_linear_731_1056)"/>
        <path d="M17.7742 22.3125C11.9565 22.3125 8.63826 18.3241 8.5 11.6875H11.4142C11.5099 16.5586 13.6582 18.6219 15.3599 19.0474V11.6875H18.104V15.8886C19.7845 15.7078 21.5498 13.7934 22.1454 11.6875H24.8894C24.4321 14.2826 22.5177 16.197 21.1563 16.984C22.5177 17.6222 24.6981 19.292 25.5276 22.3125H22.507C21.8583 20.2917 20.2418 18.7283 18.104 18.5156V22.3125H17.7742Z" fill="white"/>
    </g>
</svg>

<svg xmlns="http://www.w3.org/2000/svg" width="34" height="34" fill="none"><g clip-path="url(#clip0_731_1056)"><path d="M17 34c9.389 0 17-7.611 17-17S26.389 0 17 0 0 7.611 0 17s7.611 17 17 17z" fill="url(#paint0_linear_731_1056)"/><path d="M17.774 22.313c-5.818 0-9.136-3.989-9.274-10.625h2.914c.096 4.87 2.244 6.934 3.946 7.36v-7.36h2.744v4.2c1.68-.18 3.446-2.095 4.041-4.2h2.744c-.457 2.595-2.371 4.509-3.733 5.296 1.362.638 3.542 2.308 4.372 5.328h-3.021c-.649-2.02-2.265-3.584-4.403-3.796v3.797h-.33z" fill="#fff"/></g></svg>
